X: 6
T: The Longford Tinker
R: reel
M: 4/4
L: 1/8
K: Dmaj
|:dBBA B3c|dB B2 fgfe|dBBA BGdB|ABde f3e|
dBBA B3c|dB B2 f2fg|af f2 A3D|ABde f3e||
|:d2fd egfe|defa gefe|d2fd efge|faaf gfef|
d2fd efge|defa g3a|bgaf gfed|faaf gfed||
|:fa a2 fa a2|faaf gfed|gb b2 gb b2|gbbf gfed|
fa a2 fa a2|faaf g3a|bgaf gfed|faaf gfef||


Tune 369	Setting 29173

